X:1
T:Merry Christmas, 11.11.11.11
T:C. T. Bowen, 1894
T:Merry Christmas, 11.11.11.11
T:Public Domain
C:C. T. Bowen, 1894
Z:Public Domain
%%score ( 1 2 ) 3
L:1/8
M:4/4
K:Eb
V:1 treble 
V:2 treble 
V:3 bass 
V:1
 [EG]2 [FA]2 [GB]2 [Ge]2 | [GB]4 [EG]4 | [DF]2 [EG]2 [FA]2 [Ac]2 | [GB]8 | %4
 [EG]2 [FA]2 [GB]2 [Ge]2 | [GB]4 [EG]4 | [DF]2 [DB]2 [Fd]2 [Ec]2 | [DB]8 | %8
 [Ec]2 [EF]2 [EF]2 [EF]2 | [EB]4 E4 | [DA]2 [DG]2 [DA]2 [DF]2 | [EG]8 | [EG]2 [EA]2 [EB]2 [Ee]2 | %13
 [Fe]4 F4 | [Dc]2 [DB]2 [DB]2 [B,D]2 | [B,E]8 |] %16
V:2
 x8 | x8 | x8 | x8 | x8 | x8 | x8 | x8 | x8 | x4 E4 | x8 | x8 | x8 | x4 F4 | x8 | x8 |] %16
V:3
 [E,B,]2 [E,B,]2 [E,B,]2 [E,B,]2 | [E,B,]4 [E,B,]4 | [B,,B,]2 [B,,B,]2 [D,B,]2 [D,B,]2 | [E,B,]8 | %4
 [E,B,]2 [E,B,]2 [E,B,]2 [E,B,]2 | [E,B,]4 [E,B,]4 | [F,B,]2 [F,B,]2 [F,B,]2 [F,A,]2 | [B,,B,]8 | %8
 [A,C]2 [A,C]2 [A,C]2 [A,C]2 | [G,B,]4 [G,B,]4 | [F,B,]2 [F,B,]2 [B,,B,]2 [B,,B,]2 | [E,B,]8 | %12
 [E,B,]2 [F,B,]2 [G,B,]2 [G,B,]2 | [A,C]4 [A,C]4 | [B,,B,]2 [B,,B,]2 [B,,A,]2 [B,,A,]2 | [E,G,]8 |] %16

